X:1
T:Peace, Be Still!
T:Peace, Be Still!
T:Peter Philip Bilhorn
T:Charles Gould Beede, 1901
T:Public Domain Courtesy of the Cyber Hymnal™
C:Peter Philip Bilhorn
Z:Public Domain
Z:Courtesy of the Cyber Hymnal™
%%score ( 1 2 ) ( 3 4 )
L:1/8
Q:1/4=100
M:4/4
K:F
V:1 treble 
V:2 treble 
V:3 bass 
V:4 bass 
V:1
 C2 | [FA]3 [FA] [FA][FA][EG][FA] | [EB]6 C2 | [EB]3 [EB] [EB][EB][FA][GB] | [Ac]6 C2 | %5
w: 1.~Tho’|torn and tossed by wind and|wave, O|Helms- man, on Thy love I|lean; Tho’|
w: 2.~Tho’|lulled on si- ren seas to|sleep, In|dreams I see Thy sha- dowy|form, For|
w: 3.~Tho’|all the pow’rs of dark- ness|hurled, Burst|round my head, I know Thy|might, And|
w: 4.~And|so my soul sails on its|way; Both|storm and calm Thy love ful-|fill; I|
 [Fc]3 [Fc] [FB][FA][_EG][EF] | [DB]6 [Fd]2 | [Fc]3 [FA] [Ec][EB][FA][EG] | [CF]6 || %9
w: un- der me a yawn- ing|grave— I|know Thy mer- cies stand be-|tween.|
w: love is cra- dled in the|deep, And|bos- omed on the sweep- ing|storm.|
w: look be- yond time’s chang- ing|world, And|see Thy ha- ven thro’ the|night.|
w: hear Thy voice and I o-|bey, And|cry un- to my soul, “Be|still!”|
"^Refrain" [_EF]2 | [DF]>[Fd] [Fd]3 z [Fd]2 | [Fc]>[FA] [FA]3 z [Fc]2 | %12
w: |||
w: I’ll|trust in Thee; I’ll|watch and pray; When|
w: |||
w: |||
 [F=B]3 [FB] [FB][FG][FA]!<(![FB] | ([Ec]4!<)! [GB]4) [FA] z [EB] z [Fc] z [Fe]2 | %14
w: ||
w: doubts as- sail me, Thou wilt|say— * “Peace, peace, peace, be|
w: ||
w: ||
!>(! [Ff]6!>)! z2 | [CF]2 z2 !fermata![CEG]2 z [CF] |!<(! !fermata!F6!<)! |] %17
w: |||
w: still!|Peace, peace, be|still!”|
w: |||
w: |||
V:2
 x2 | x8 | x6 C2 | x8 | x6 C2 | x8 | x8 | x8 | x6 || x2 | x8 | x8 | x8 | x16 | x8 | x8 | %16
 (A,2 B,B, A,2) |] %17
V:3
 [F,A,]2 | [F,C]3 [F,C] [F,C][F,C][C,C][F,C] | [G,C]6 [C,B,]2 | %3
w: |||
 [C,G,]3 [C,G,] [C,G,][C,G,][C,C][C,C] | [F,C]6 [F,A,]2 | [F,A,]3 [F,A,] [F,D][F,C][F,A,][F,A,] | %6
w: |||
 [B,,B,]6 [B,,B,]2 | [C,A,]3 [C,C] [C,G,][C,C][C,C][C,B,] | [F,A,]6 || [F,A,]2 | %10
w: ||||
 [B,,B,]>[B,,B,] [B,,B,]3 z [B,,B,]2 | [F,A,]>[F,C] [F,C]3 z [F,A,]2 | %12
w: ||
 G,3 [G,,D] [G,,D][G,,=B,][G,,B,][G,,D] | ([C,C]4 [E,C]4) [F,C] z [G,C] z [A,C] z [A,_E]2 | %14
w: Peace, * * * * *||
 [B,D]6 z2 | [F,A,]2 z2 !fermata![C,B,]2 z [F,,A,] | F,2 D,D, !fermata!C,2 |] %17
w: ||* be still! *|
V:4
 x2 | x8 | x8 | x8 | x8 | x8 | x8 | x8 | x6 || x2 | x8 | x8 | G,3 x5 | x16 | x8 | x8 | F,,6 |] %17

